X:11
T:Internationale, The
T:L'Internationale
T:Internationalen
R:misc
C:Pierre De Geyter (1848-1932)
Z:id:hn-misc-11
M:4/4
L:1/8
Q:1/4=120
K:G
D | G3F AG DB, | E4 C3E | A3G FEDC | B,4 z2
D2 | G3F AG DB, | E4 C2 AG | F2 A2 c2 F2 | G4 z2
BA | F3F EF GE | F4 D2 ^CD | E2 EE A3G | F4 z2
zA | A3F DD^CD | B4 GE FG | F2 A2 G2 E2 | D4 z2
BA | G4 D3B, | E4 C2 AG | F4 E2 _E2 | D4 z2
D2 | B4 A3D | G4 F3F | E3^D E2 A2 | A4 z2
BA | G4 D3B, | E4 C2 AG | F4 E3D | B4 z2
B2 | d4 c2 B2 | E2FG A2 c2 | B3G A3F | G4 z2 z ||

